src/assets/icon-share.svg

<svg fill="currentColor" viewBox="0 0 24 24" xmlns="http://www.w3.org/2000/svg">
<g fill="none" stroke="currentColor" stroke-width="2" stroke-linecap="round">
<path transform="translate(4 15)" d="m0 1v2c1.3527e-16 1.1046 0.89543 2 2 2h12c1.1046 0 2-0.89543 2-2v-3" opacity=".5"/>
<path transform="translate(4 3)" d="m9.3103 3.8182v-3.8182l8.6897 6.3636-8.6897 6.3636v-3.8182c-3.4448 0-6.6103 0.12727-9.3103 5.0909 0-3.15 0.31034-10.182 9.3103-10.182z" stroke-linejoin="round"/>
</g>
</svg>

<svg id="ic_share" xmlns="http://www.w3.org/2000/svg" width="32" height="32" viewBox="0 0 32 32">
  <rect id="BG" width="32" height="32" fill="rgba(255,255,255,0)"/>
  <g id="share-24" transform="translate(3 4)">
    <path id="Pfad_3948" data-name="Pfad 3948" d="M0,1V3A2,2,0,0,0,2,5H14a2,2,0,0,0,2-2V0h0" transform="translate(4 15)" fill="none" stroke="#fff" stroke-linecap="round" stroke-width="2" fill-rule="evenodd" opacity="0.7"/>
    <path id="Pfad_3949" data-name="Pfad 3949" d="M9.31,3.818V0L18,6.364,9.31,12.727V8.909C5.866,8.909,2.7,9.036,0,14,0,10.85.31,3.818,9.31,3.818Z" transform="translate(4 3)" fill="none" stroke="#fff" stroke-linecap="round" stroke-linejoin="round" stroke-width="2" fill-rule="evenodd"/>
  </g>
</svg>
